X: 807
T: Alan Davidson
R: reel
M: 4/4
K: Amajor
B|A/A/A Ac eadf|ecag feea|A/A/A Ac eadf|ecdB cAA:|
d|cAAc ecce|fadf feea|cAAc Acec|fded cAA
d|cAAc ecce|fade feed|cAAc ABcd|ecdB cAA||

